X: 8
T: Down The Broom
R: reel
M: 4/4
L: 1/8
K: Gmaj
EA (3.A.A.A A2Bd | eg~g2 egdc | BG~G2 ~G3E | {G}EDB,D GABG |
EA (3.A.A.A A2Bd | eg~g2 egdg | eg~g2 dgbg | {a}gedB {d}BAA2 :|
a2ea {b}ageg | agbg agef | g2dg Bgdg | {a}geaf gedg |
a2ea {b}ageg | agbg ageg | dg~g2 dgba | gedB {d}BAA2 :|


Tune 514	Setting 13996

